X:1
T: The Lassies of Dunse
T: The Lasses of Dunse
R:Jig
Q:180
K:D
M:6/8
L:1/16
|:fg|a2f2d2 e2c2A2|d4A2 A4c2|B2G2B2 A2G2F2|E4E2 E4fg|
a2f2d2 e2c2A2|d4A2 A4A2|F2D2F2 E2C2E2|D4D2 D4FG|
A2F2A2 B2G2B2|A2F2A2 d4A2|B2G2B2 A2G2F2|E4E2 E4fg|
a2f2a2 g2e2g2|f2d2f2 e2c2A2|Bcd2B2 cde2c2|d4d2 d4:|
